bernoullicharts/pow_x_5_4__bits.svg

<?xml version="1.0" encoding="utf-8" standalone="no"?>
<!DOCTYPE svg PUBLIC "-//W3C//DTD SVG 1.1//EN"
  "http://www.w3.org/Graphics/SVG/1.1/DTD/svg11.dtd">
<!-- Created with matplotlib (https://matplotlib.org/) -->
<svg height="345.6pt" version="1.1" viewBox="0 0 460.8 345.6" width="460.8pt" xmlns="http://www.w3.org/2000/svg" xmlns:xlink="http://www.w3.org/1999/xlink">
 <defs>
  <style type="text/css">
*{stroke-linecap:butt;stroke-linejoin:round;}
  </style>
 </defs>
 <g id="figure_1">
  <g id="patch_1">
   <path d="M 0 345.6 
L 460.8 345.6 
L 460.8 0 
L 0 0 
z
" style="fill:#ffffff;"/>
  </g>
  <g id="axes_1">
   <g id="patch_2">
    <path d="M 57.6 307.584 
L 414.72 307.584 
L 414.72 41.472 
L 57.6 41.472 
z
" style="fill:#ffffff;"/>
   </g>
   <g id="matplotlib.axis_1">
    <g id="xtick_1">
     <g id="line2d_1">
      <defs>
       <path d="M 0 0 
L 0 3.5 
" id="m555f133d9b" style="stroke:#000000;stroke-width:0.8;"/>
      </defs>
      <g>
       <use style="stroke:#000000;stroke-width:0.8;" x="73.800255" xlink:href="#m555f133d9b" y="307.584"/>
      </g>
     </g>
     <g id="text_1">
      <text style="font-family:DejaVu Sans;font-size:10px;font-style:normal;font-weight:normal;text-anchor:middle;" transform="rotate(-0, 73.800255, 322.182437)" x="73.800255" y="322.182437">0.0</text>
     </g>
    </g>
    <g id="xtick_2">
     <g id="line2d_2">
      <g>
       <use style="stroke:#000000;stroke-width:0.8;" x="138.744153" xlink:href="#m555f133d9b" y="307.584"/>
      </g>
     </g>
     <g id="text_2">
      <text style="font-family:DejaVu Sans;font-size:10px;font-style:normal;font-weight:normal;text-anchor:middle;" transform="rotate(-0, 138.744153, 322.182437)" x="138.744153" y="322.182437">0.2</text>
     </g>
    </g>
    <g id="xtick_3">
     <g id="line2d_3">
      <g>
       <use style="stroke:#000000;stroke-width:0.8;" x="203.688051" xlink:href="#m555f133d9b" y="307.584"/>
      </g>
     </g>
     <g id="text_3">
      <text style="font-family:DejaVu Sans;font-size:10px;font-style:normal;font-weight:normal;text-anchor:middle;" transform="rotate(-0, 203.688051, 322.182437)" x="203.688051" y="322.182437">0.4</text>
     </g>
    </g>
    <g id="xtick_4">
     <g id="line2d_4">
      <g>
       <use style="stroke:#000000;stroke-width:0.8;" x="268.631949" xlink:href="#m555f133d9b" y="307.584"/>
      </g>
     </g>
     <g id="text_4">
      <text style="font-family:DejaVu Sans;font-size:10px;font-style:normal;font-weight:normal;text-anchor:middle;" transform="rotate(-0, 268.631949, 322.182437)" x="268.631949" y="322.182437">0.6</text>
     </g>
    </g>
    <g id="xtick_5">
     <g id="line2d_5">
      <g>
       <use style="stroke:#000000;stroke-width:0.8;" x="333.575847" xlink:href="#m555f133d9b" y="307.584"/>
      </g>
     </g>
     <g id="text_5">
      <text style="font-family:DejaVu Sans;font-size:10px;font-style:normal;font-weight:normal;text-anchor:middle;" transform="rotate(-0, 333.575847, 322.182437)" x="333.575847" y="322.182437">0.8</text>
     </g>
    </g>
    <g id="xtick_6">
     <g id="line2d_6">
      <g>
       <use style="stroke:#000000;stroke-width:0.8;" x="398.519745" xlink:href="#m555f133d9b" y="307.584"/>
      </g>
     </g>
     <g id="text_6">
      <text style="font-family:DejaVu Sans;font-size:10px;font-style:normal;font-weight:normal;text-anchor:middle;" transform="rotate(-0, 398.519745, 322.182437)" x="398.519745" y="322.182437">1.0</text>
     </g>
    </g>
    <g id="text_7">
     <text style="font-family:DejaVu Sans;font-size:10px;font-style:normal;font-weight:normal;text-anchor:middle;" transform="rotate(-0, 236.16, 335.860562)" x="236.16" y="335.860562">Probability</text>
    </g>
   </g>
   <g id="matplotlib.axis_2">
    <g id="ytick_1">
     <g id="line2d_7">
      <defs>
       <path d="M 0 0 
L -3.5 0 
" id="mbedde2c45c" style="stroke:#000000;stroke-width:0.8;"/>
      </defs>
      <g>
       <use style="stroke:#000000;stroke-width:0.8;" x="57.6" xlink:href="#mbedde2c45c" y="298.917265"/>
      </g>
     </g>
     <g id="text_8">
      <text style="font-family:DejaVu Sans;font-size:10px;font-style:normal;font-weight:normal;text-anchor:end;" transform="rotate(-0, 50.6, 302.716483)" x="50.6" y="302.716483">0</text>
     </g>
    </g>
    <g id="ytick_2">
     <g id="line2d_8">
      <g>
       <use style="stroke:#000000;stroke-width:0.8;" x="57.6" xlink:href="#mbedde2c45c" y="254.861963"/>
      </g>
     </g>
     <g id="text_9">
      <text style="font-family:DejaVu Sans;font-size:10px;font-style:normal;font-weight:normal;text-anchor:end;" transform="rotate(-0, 50.6, 258.661181)" x="50.6" y="258.661181">50</text>
     </g>
    </g>
    <g id="ytick_3">
     <g id="line2d_9">
      <g>
       <use style="stroke:#000000;stroke-width:0.8;" x="57.6" xlink:href="#mbedde2c45c" y="210.80666"/>
      </g>
     </g>
     <g id="text_10">
      <text style="font-family:DejaVu Sans;font-size:10px;font-style:normal;font-weight:normal;text-anchor:end;" transform="rotate(-0, 50.6, 214.605879)" x="50.6" y="214.605879">100</text>
     </g>
    </g>
    <g id="ytick_4">
     <g id="line2d_10">
      <g>
       <use style="stroke:#000000;stroke-width:0.8;" x="57.6" xlink:href="#mbedde2c45c" y="166.751358"/>
      </g>
     </g>
     <g id="text_11">
      <text style="font-family:DejaVu Sans;font-size:10px;font-style:normal;font-weight:normal;text-anchor:end;" transform="rotate(-0, 50.6, 170.550577)" x="50.6" y="170.550577">150</text>
     </g>
    </g>
    <g id="ytick_5">
     <g id="line2d_11">
      <g>
       <use style="stroke:#000000;stroke-width:0.8;" x="57.6" xlink:href="#mbedde2c45c" y="122.696056"/>
      </g>
     </g>
     <g id="text_12">
      <text style="font-family:DejaVu Sans;font-size:10px;font-style:normal;font-weight:normal;text-anchor:end;" transform="rotate(-0, 50.6, 126.495275)" x="50.6" y="126.495275">200</text>
     </g>
    </g>
    <g id="ytick_6">
     <g id="line2d_12">
      <g>
       <use style="stroke:#000000;stroke-width:0.8;" x="57.6" xlink:href="#mbedde2c45c" y="78.640754"/>
      </g>
     </g>
     <g id="text_13">
      <text style="font-family:DejaVu Sans;font-size:10px;font-style:normal;font-weight:normal;text-anchor:end;" transform="rotate(-0, 50.6, 82.439972)" x="50.6" y="82.439972">250</text>
     </g>
    </g>
    <g id="text_14">
     <text style="font-family:DejaVu Sans;font-size:10px;font-style:normal;font-weight:normal;text-anchor:middle;" transform="rotate(-90, 25.432812, 174.528)" x="25.432812" y="174.528">Average Bits Consumed Per Call</text>
    </g>
   </g>
   <g id="line2d_13">
    <path clip-path="url(#p4b910c1205)" d="M 73.832727 53.568 
L 77.112066 261.438538 
L 80.391405 275.4446 
L 83.670744 280.983232 
L 86.950083 279.753208 
L 90.229421 282.738396 
L 93.50876 285.483922 
L 96.788099 285.996726 
L 100.067438 286.620549 
L 103.346777 287.089297 
L 106.626116 287.438215 
L 109.905455 288.173058 
L 113.184793 289.50529 
L 116.464132 288.319321 
L 119.743471 290.049813 
L 123.02281 290.116778 
L 126.302149 289.277965 
L 129.581488 290.675399 
L 132.860826 290.945017 
L 136.140165 291.320368 
L 139.419504 291.359137 
L 142.698843 291.179391 
L 145.978182 290.774083 
L 149.257521 291.121238 
L 152.53686 291.422577 
L 155.816198 291.859605 
L 159.095537 290.721216 
L 162.374876 291.560029 
L 165.654215 292.064022 
L 168.933554 292.270201 
L 172.212893 291.974149 
L 175.492231 292.176803 
L 178.77157 292.818249 
L 182.050909 292.758333 
L 185.330248 292.495764 
L 188.609587 292.860542 
L 191.888926 292.761858 
L 195.168264 292.793578 
L 198.447603 292.997994 
L 201.726942 292.885213 
L 205.006281 292.902835 
L 208.28562 293.324004 
L 211.564959 293.34515 
L 214.844298 293.343388 
L 218.123636 293.133685 
L 221.402975 293.628866 
L 224.682314 293.228844 
L 227.961653 293.311668 
L 231.240992 293.930205 
L 234.520331 293.840332 
L 237.799669 293.769843 
L 241.079008 293.820947 
L 244.358347 293.801563 
L 247.637686 293.956638 
L 250.917025 293.947827 
L 254.196364 293.940778 
L 257.475702 293.882625 
L 260.755041 293.965449 
L 264.03438 293.99012 
L 267.313719 294.280885 
L 270.593058 294.2615 
L 273.872397 294.333751 
L 277.151736 294.335513 
L 280.431074 294.331989 
L 283.710413 294.354898 
L 286.989752 294.131097 
L 290.269091 294.275598 
L 293.54843 294.619229 
L 296.827769 294.464155 
L 300.107107 294.384855 
L 303.386446 294.546979 
L 306.665785 294.504686 
L 309.945124 294.509972 
L 313.224463 294.652711 
L 316.503802 294.673858 
L 319.78314 294.610418 
L 323.062479 294.742584 
L 326.341818 294.830695 
L 329.621157 294.677382 
L 332.900496 294.712627 
L 336.179835 294.920568 
L 339.459174 294.848317 
L 342.738512 294.904708 
L 346.017851 295.068594 
L 349.29719 294.909994 
L 352.576529 295.033349 
L 355.855868 295.132033 
L 359.135207 295.091502 
L 362.414545 295.086216 
L 365.693884 294.89061 
L 368.973223 295.299443 
L 372.252562 295.376981 
L 375.531901 295.096789 
L 378.81124 295.236004 
L 382.090579 295.488 
L 385.369917 295.324114 
L 388.649256 295.258912 
L 391.928595 295.27301 
L 395.207934 295.450994 
L 398.487273 295.406938 
" style="fill:none;stroke:#1f77b4;stroke-linecap:square;stroke-width:1.5;"/>
   </g>
   <g id="patch_3">
    <path d="M 57.6 307.584 
L 57.6 41.472 
" style="fill:none;stroke:#000000;stroke-linecap:square;stroke-linejoin:miter;stroke-width:0.8;"/>
   </g>
   <g id="patch_4">
    <path d="M 414.72 307.584 
L 414.72 41.472 
" style="fill:none;stroke:#000000;stroke-linecap:square;stroke-linejoin:miter;stroke-width:0.8;"/>
   </g>
   <g id="patch_5">
    <path d="M 57.6 307.584 
L 414.72 307.584 
" style="fill:none;stroke:#000000;stroke-linecap:square;stroke-linejoin:miter;stroke-width:0.8;"/>
   </g>
   <g id="patch_6">
    <path d="M 57.6 41.472 
L 414.72 41.472 
" style="fill:none;stroke:#000000;stroke-linecap:square;stroke-linejoin:miter;stroke-width:0.8;"/>
   </g>
   <g id="text_15">
    <text style="font-family:DejaVu Sans;font-size:12px;font-style:normal;font-weight:normal;text-anchor:middle;" transform="rotate(-0, 236.16, 35.472)" x="236.16" y="35.472">Avg. Bits Consumed by pow(x,5/4) Algorithm</text>
   </g>
   <g id="legend_1">
    <g id="patch_7">
     <path d="M 322.080938 64.150125 
L 407.72 64.150125 
Q 409.72 64.150125 409.72 62.150125 
L 409.72 48.472 
Q 409.72 46.472 407.72 46.472 
L 322.080938 46.472 
Q 320.080938 46.472 320.080938 48.472 
L 320.080938 62.150125 
Q 320.080938 64.150125 322.080938 64.150125 
z
" style="fill:#ffffff;opacity:0.8;stroke:#cccccc;stroke-linejoin:miter;"/>
    </g>
    <g id="line2d_14">
     <path d="M 324.080938 54.570438 
L 344.080938 54.570438 
" style="fill:none;stroke:#1f77b4;stroke-linecap:square;stroke-width:1.5;"/>
    </g>
    <g id="line2d_15"/>
    <g id="text_16">
     <text style="font-family:DejaVu Sans;font-size:10px;font-style:normal;font-weight:normal;text-anchor:start;" transform="rotate(-0, 352.080938, 58.070438)" x="352.080938" y="58.070438">pow(x,5/4)</text>
    </g>
   </g>
  </g>
 </g>
 <defs>
  <clipPath id="p4b910c1205">
   <rect height="266.112" width="357.12" x="57.6" y="41.472"/>
  </clipPath>
 </defs>
</svg>

<svg height="460.8" viewBox="0 0 460.8 345.6" width="614.4" xmlns="http://www.w3.org/2000/svg" xmlns:xlink="http://www.w3.org/1999/xlink"><defs><style>*{stroke-linecap:butt;stroke-linejoin:round}</style></defs><g id="figure_1"><path d="M0 345.6h460.8V0H0z" fill="#fff" id="patch_1"/><g id="axes_1"><path d="M57.6 307.584h357.12V41.472H57.6z" fill="#fff" id="patch_2"/><g id="matplotlib.axis_1"><g id="xtick_1"><g id="line2d_1"><defs><path d="M0 0v3.5" id="m555f133d9b" stroke="#000" stroke-width=".8"/></defs><use x="73.8" xlink:href="#m555f133d9b" y="307.584" stroke="#000" stroke-width=".8"/></g><text x="73.8" y="322.182" font-family="DejaVu Sans" font-size="10" font-weight="400" text-anchor="middle" id="text_1">0.0</text></g><g id="xtick_2"><use x="138.744" xlink:href="#m555f133d9b" y="307.584" stroke="#000" stroke-width=".8" id="line2d_2"/><text x="138.744" y="322.182" font-family="DejaVu Sans" font-size="10" font-weight="400" text-anchor="middle" id="text_2">0.2</text></g><g id="xtick_3"><use x="203.688" xlink:href="#m555f133d9b" y="307.584" stroke="#000" stroke-width=".8" id="line2d_3"/><text x="203.688" y="322.182" font-family="DejaVu Sans" font-size="10" font-weight="400" text-anchor="middle" id="text_3">0.4</text></g><g id="xtick_4"><use x="268.632" xlink:href="#m555f133d9b" y="307.584" stroke="#000" stroke-width=".8" id="line2d_4"/><text x="268.632" y="322.182" font-family="DejaVu Sans" font-size="10" font-weight="400" text-anchor="middle" id="text_4">0.6</text></g><g id="xtick_5"><use x="333.576" xlink:href="#m555f133d9b" y="307.584" stroke="#000" stroke-width=".8" id="line2d_5"/><text x="333.576" y="322.182" font-family="DejaVu Sans" font-size="10" font-weight="400" text-anchor="middle" id="text_5">0.8</text></g><g id="xtick_6"><use x="398.52" xlink:href="#m555f133d9b" y="307.584" stroke="#000" stroke-width=".8" id="line2d_6"/><text x="398.52" y="322.182" font-family="DejaVu Sans" font-size="10" font-weight="400" text-anchor="middle" id="text_6">1.0</text></g><text x="236.16" y="335.861" font-family="DejaVu Sans" font-size="10" font-weight="400" text-anchor="middle" id="text_7">Probability</text></g><g id="matplotlib.axis_2"><g id="ytick_1"><g id="line2d_7"><defs><path d="M0 0h-3.5" id="mbedde2c45c" stroke="#000" stroke-width=".8"/></defs><use x="57.6" xlink:href="#mbedde2c45c" y="298.917" stroke="#000" stroke-width=".8"/></g><text x="50.6" y="302.716" font-family="DejaVu Sans" font-size="10" font-weight="400" text-anchor="end" id="text_8">0</text></g><g id="ytick_2"><use x="57.6" xlink:href="#mbedde2c45c" y="254.862" stroke="#000" stroke-width=".8" id="line2d_8"/><text x="50.6" y="258.661" font-family="DejaVu Sans" font-size="10" font-weight="400" text-anchor="end" id="text_9">50</text></g><g id="ytick_3"><use x="57.6" xlink:href="#mbedde2c45c" y="210.807" stroke="#000" stroke-width=".8" id="line2d_9"/><text x="50.6" y="214.606" font-family="DejaVu Sans" font-size="10" font-weight="400" text-anchor="end" id="text_10">100</text></g><g id="ytick_4"><use x="57.6" xlink:href="#mbedde2c45c" y="166.751" stroke="#000" stroke-width=".8" id="line2d_10"/><text x="50.6" y="170.551" font-family="DejaVu Sans" font-size="10" font-weight="400" text-anchor="end" id="text_11">150</text></g><g id="ytick_5"><use x="57.6" xlink:href="#mbedde2c45c" y="122.696" stroke="#000" stroke-width=".8" id="line2d_11"/><text x="50.6" y="126.495" font-family="DejaVu Sans" font-size="10" font-weight="400" text-anchor="end" id="text_12">200</text></g><g id="ytick_6"><use x="57.6" xlink:href="#mbedde2c45c" y="78.641" stroke="#000" stroke-width=".8" id="line2d_12"/><text x="50.6" y="82.44" font-family="DejaVu Sans" font-size="10" font-weight="400" text-anchor="end" id="text_13">250</text></g><text transform="rotate(-90 25.433 174.528)" x="25.433" y="174.528" font-family="DejaVu Sans" font-size="10" font-weight="400" text-anchor="middle" id="text_14">Average Bits Consumed Per Call</text></g><path clip-path="url(#p4b910c1205)" d="M73.833 53.568l3.28 207.87 3.278 14.007 3.28 5.538 3.28-1.23 3.278 2.985 3.28 2.746 3.28.513 3.278.624 3.28.468 3.28.35 3.278.734 3.28 1.332 3.28-1.186 3.278 1.73 3.28.068 3.28-.839 3.278 1.397 3.28.27 3.28.375 3.279.04 3.279-.18 3.28-.406 3.279.347 3.279.302 3.28.437 3.279-1.139 3.279.839 3.28.504 3.279.206 3.279-.296 3.28.203 3.279.641 3.279-.06 3.28-.262 3.279.365 3.279-.1 3.28.033 3.279.204 3.279-.113 3.28.018 3.279.421 3.279.021 3.28-.002 3.279-.21 3.279.496 3.28-.4 3.279.083 3.279.618 3.28-.09 3.279-.07 3.279.05 3.28-.018 3.279.155 3.279-.01 3.28-.006 3.279-.058 3.279.082 3.28.025 3.279.29 3.28-.018 3.278.072 3.28.002 3.28-.004 3.278.023 3.28-.224 3.28.145 3.278.343 3.28-.155 3.28-.08 3.278.163 3.28-.042 3.28.005 3.278.143 3.28.02 3.28-.063 3.278.133 3.28.088 3.28-.154 3.278.036 3.28.208 3.28-.073 3.279.057 3.279.164 3.28-.159 3.279.123 3.279.099 3.28-.04 3.279-.006 3.279-.195 3.28.408 3.279.078 3.279-.28 3.28.139 3.279.252 3.279-.164 3.28-.065 3.279.014 3.279.178 3.28-.044" fill="none" stroke="#1f77b4" stroke-linecap="square" stroke-width="1.5" id="line2d_13"/><path d="M57.6 307.584V41.472" fill="none" stroke="#000" stroke-linecap="square" stroke-width=".8" id="patch_3"/><path d="M414.72 307.584V41.472" fill="none" stroke="#000" stroke-linecap="square" stroke-width=".8" id="patch_4"/><path d="M57.6 307.584h357.12" fill="none" stroke="#000" stroke-linecap="square" stroke-width=".8" id="patch_5"/><path d="M57.6 41.472h357.12" fill="none" stroke="#000" stroke-linecap="square" stroke-width=".8" id="patch_6"/><text x="236.16" y="35.472" font-family="DejaVu Sans" font-size="12" font-weight="400" text-anchor="middle" id="text_15">Avg. Bits Consumed by pow(x,5/4) Algorithm</text><g id="legend_1"><path d="M322.08 64.15h85.64q2 0 2-2V48.472q0-2-2-2h-85.64q-2 0-2 2V62.15q0 2 2 2z" fill="#fff" opacity=".8" stroke="#ccc" id="patch_7"/><path d="M324.08 54.57h20" fill="none" stroke="#1f77b4" stroke-linecap="square" stroke-width="1.5" id="line2d_14"/><text x="352.081" y="58.07" font-family="DejaVu Sans" font-size="10" font-weight="400" id="text_16">pow(x,5/4)</text></g></g></g><defs><clipPath id="p4b910c1205"><path d="M57.6 41.472h357.12v266.112H57.6z"/></clipPath></defs></svg>
